Numix-Square/48x48/apps/crashplan.svg

<svg xmlns="http://www.w3.org/2000/svg" xmlns:xlink="http://www.w3.org/1999/xlink" width="48" height="48">
 <defs>
  <linearGradient id="0">
   <stop stop-color="#72a636"/>
   <stop offset="1" stop-color="#617248"/>
  </linearGradient>
  <clipPath>
   <rect width="125" height="105" x="-25" y="-42" fill="#f9f9f9"/>
  </clipPath>
  <linearGradient gradientTransform="translate(-47.997636,-1052.3598)" xlink:href="#0" id="1" y1="1050.36" x2="0" y2="1006.36" gradientUnits="userSpaceOnUse"/>
 </defs>
 <g transform="translate(0,-1004.3622)">
  <path transform="translate(0,1004.3622)" d="M 5.1875,1 C 2.8707723,1 1,2.8707723 1,5.1875 l 0,37.625 C 1,45.129228 2.8707723,47 5.1875,47 l 37.625,0 C 45.129228,47 47,45.129228 47,42.8125 L 47,5.1875 C 47,2.8707723 45.129228,1 42.8125,1 L 5.1875,1 z m 0.1875,0.25 37.25,0 c 2.291546,0 4.125,1.8334541 4.125,4.125 l 0,37.25 c 0,2.291546 -1.833454,4.125 -4.125,4.125 l -37.25,0 C 3.0834541,46.75 1.25,44.916546 1.25,42.625 l 0,-37.25 C 1.25,3.0834541 3.0834541,1.25 5.375,1.25 z" opacity="0.05"/>
  <path transform="translate(0,1004.3622)" d="M 5.375,1.25 C 3.0834541,1.25 1.25,3.0834541 1.25,5.375 l 0,37.25 c 0,2.291546 1.8334541,4.125 4.125,4.125 l 37.25,0 c 2.291546,0 4.125,-1.833454 4.125,-4.125 l 0,-37.25 C 46.75,3.0834541 44.916546,1.25 42.625,1.25 l -37.25,0 z m 0.21875,0.25 36.8125,0 C 44.672614,1.5 46.5,3.3273859 46.5,5.59375 l 0,36.8125 C 46.5,44.672614 44.672614,46.5 42.40625,46.5 l -36.8125,0 C 3.3273859,46.5 1.5,44.672614 1.5,42.40625 l 0,-36.8125 C 1.5,3.3273859 3.3273859,1.5 5.59375,1.5 z" opacity="0.1"/>
  <path transform="translate(0,1004.3622)" d="M 5.59375,1.5 C 3.3273859,1.5 1.5,3.3273859 1.5,5.59375 l 0,36.8125 C 1.5,44.672614 3.3273859,46.5 5.59375,46.5 l 36.8125,0 C 44.672614,46.5 46.5,44.672614 46.5,42.40625 l 0,-36.8125 C 46.5,3.3273859 44.672614,1.5 42.40625,1.5 l -36.8125,0 z m 0.09375,0.125 36.625,0 c 2.253773,0 4.0625,1.8087269 4.0625,4.0625 l 0,36.625 c 0,2.253773 -1.808727,4.0625 -4.0625,4.0625 l -36.625,0 c -2.2537731,0 -4.0625,-1.808727 -4.0625,-4.0625 l 0,-36.625 C 1.625,3.4337269 3.4337269,1.625 5.6875,1.625 z" opacity="0.2"/>
  <path transform="translate(0,1004.3622)" d="M 5.6875,1.625 C 3.4337269,1.625 1.625,3.4337269 1.625,5.6875 l 0,36.625 c 0,2.253773 1.8087269,4.0625 4.0625,4.0625 l 36.625,0 c 2.253773,0 4.0625,-1.808727 4.0625,-4.0625 l 0,-36.625 c 0,-2.2537731 -1.808727,-4.0625 -4.0625,-4.0625 l -36.625,0 z m 0.09375,0.125 36.4375,0 c 2.241182,0 4.03125,1.7900679 4.03125,4.03125 l 0,36.4375 c 0,2.241182 -1.790068,4.03125 -4.03125,4.03125 l -36.4375,0 C 3.5400679,46.25 1.75,44.459932 1.75,42.21875 l 0,-36.4375 C 1.75,3.5400679 3.5400679,1.75 5.78125,1.75 z" opacity="0.3"/>
  <path transform="translate(0,1004.3622)" d="M 5.78125,1.75 C 3.5400679,1.75 1.75,3.5400679 1.75,5.78125 l 0,36.4375 c 0,2.241182 1.7900679,4.03125 4.03125,4.03125 l 36.4375,0 c 2.241182,0 4.03125,-1.790068 4.03125,-4.03125 l 0,-36.4375 C 46.25,3.5400679 44.459932,1.75 42.21875,1.75 l -36.4375,0 z m 0.125,0.125 36.1875,0 c 2.228591,0 4.03125,1.802659 4.03125,4.03125 l 0,36.1875 c 0,2.228591 -1.802659,4.03125 -4.03125,4.03125 l -36.1875,0 C 3.677659,46.125 1.875,44.322341 1.875,42.09375 l 0,-36.1875 C 1.875,3.677659 3.677659,1.875 5.90625,1.875 z" opacity="0.4"/>
  <rect width="44.25" height="44.25" x="1.875" y="1006.24" rx="4.02" opacity="0.5"/>
 </g>
 <rect width="44" height="44" x="-45.999" y="-45.999" rx="4" transform="scale(-1,-1)" fill="url(#1)"/>
 <path d="M 23 11 L 11 21 C 10.125841 21.772462 9.7854231 22.441538 10.3125 23 C 10.869796 23.557716 11.53259 23.468837 12 23 L 12 34 C 12 34.494024 12.483881 35 13 35 L 24 35 L 35 35 C 35.516119 35 36 34.494024 36 34 L 36 23 C 36.46741 23.468837 37.130204 23.557716 37.6875 23 C 38.214577 22.441538 37.874159 21.772462 37 21 L 25 11 L 24 11 L 23 11 z M 23.5 22 C 24.14738 22 24.697094 22.420729 24.90625 23 L 26.09375 23 C 26.29759 22.413588 26.844162 22 27.5 22 C 28.14738 22 28.697094 22.420729 28.90625 23 L 30.09375 23 C 30.29759 22.413588 30.844162 22 31.5 22 C 32.305032 22 32.967725 22.633115 33 23.4375 L 33 23.5 C 33 24.155838 32.586412 24.70241 32 24.90625 L 32 26.09375 C 32.559402 26.29471 32.974853 26.81075 33 27.4375 L 33 27.5 C 33 28.155838 32.586412 28.70241 32 28.90625 L 32 30.09375 C 32.559402 30.29471 32.974853 30.81075 33 31.4375 L 33 31.5 C 33 32.328427 32.328427 33 31.5 33 C 30.844162 33 30.29759 32.586412 30.09375 32 L 28.90625 32 C 28.70241 32.586412 28.155838 33 27.5 33 C 26.844162 33 26.29759 32.586412 26.09375 32 L 24.90625 32 C 24.70241 32.586412 24.155838 33 23.5 33 C 22.671573 33 22 32.328427 22 31.5 C 22 30.844162 22.413588 30.29759 23 30.09375 L 23 28.90625 C 22.413588 28.70241 22 28.155838 22 27.5 C 22 26.844162 22.413588 26.29759 23 26.09375 L 23 24.90625 C 22.413588 24.70241 22 24.155838 22 23.5 C 22 22.671573 22.671573 22 23.5 22 z M 24.90625 24 C 24.756052 24.432093 24.432093 24.756052 24 24.90625 L 24 26.09375 C 24.418803 26.244201 24.754531 26.579804 24.90625 27 L 26.09375 27 C 26.243948 26.567907 26.567907 26.243948 27 26.09375 L 27 24.90625 C 26.567907 24.756052 26.243948 24.432093 26.09375 24 L 24.90625 24 z M 28.90625 24 C 28.756052 24.432093 28.432093 24.756052 28 24.90625 L 28 26.09375 C 28.418803 26.244201 28.754531 26.579804 28.90625 27 L 30.09375 27 C 30.243948 26.567907 30.567907 26.243948 31 26.09375 L 31 24.90625 C 30.567907 24.756052 30.243948 24.432093 30.09375 24 L 28.90625 24 z M 24.90625 28 C 24.756052 28.432093 24.432093 28.756052 24 28.90625 L 24 30.09375 C 24.418803 30.244201 24.754531 30.579804 24.90625 31 L 26.09375 31 C 26.243948 30.567907 26.567907 30.243948 27 30.09375 L 27 28.90625 C 26.567907 28.756052 26.243948 28.432093 26.09375 28 L 24.90625 28 z M 28.90625 28 C 28.756052 28.432093 28.432093 28.756052 28 28.90625 L 28 30.09375 C 28.418803 30.244201 28.754531 30.579804 28.90625 31 L 30.09375 31 C 30.243948 30.567907 30.567907 30.243948 31 30.09375 L 31 28.90625 C 30.567907 28.756052 30.243948 28.432093 30.09375 28 L 28.90625 28 z " fill="#f9f9f9"/>
</svg>

<svg viewBox="0 0 48 48"><defs><linearGradient id="linearGradient3764" x1="1" x2="47" gradientUnits="userSpaceOnUse" gradientTransform="translate(-47.997785,0.00221467)"><stop stop-color="#669034" stop-opacity="1"/><stop offset="1" stop-color="#709f39" stop-opacity="1"/></linearGradient><clipPath id="clipPath-964419273"><g transform="translate(0,-1004.3622)"><rect rx="4" y="1005.36" x="1" height="46" width="46" fill="#1890d0"/></g></clipPath><clipPath id="clipPath-980011171"><g transform="translate(0,-1004.3622)"><rect rx="4" y="1005.36" x="1" height="46" width="46" fill="#1890d0"/></g></clipPath></defs><g><g transform="translate(0,-1004.3622)"><path d="m 5 1006.36 c -2.216 0 -4 1.784 -4 4 l 0 37.25 c 0 2.216 1.784 4 4 4 l 38 0 c 2.216 0 4 -1.784 4 -4 l 0 -37.25 c 0 -2.216 -1.784 -4 -4 -4 l -38 0 z m -4 41.5 0 0.5 c 0 2.216 1.784 4 4 4 l 38 0 c 2.216 0 4 -1.784 4 -4 l 0 -0.5 c 0 2.216 -1.784 4 -4 4 l -38 0 c -2.216 0 -4 -1.784 -4 -4 z" opacity="0.02"/><path d="m 1 1047.61 0 0.25 c 0 2.216 1.784 4 4 4 l 38 0 c 2.216 0 4 -1.784 4 -4 l 0 -0.25 c 0 2.216 -1.784 4 -4 4 l -38 0 c -2.216 0 -4 -1.784 -4 -4 z" opacity="0.05"/><rect width="46" height="46" x="1" y="1005.61" rx="4" opacity="0.1"/></g></g><g><rect width="46" height="46" x="-46.998" y="1" rx="4" transform="matrix(0,-1,1,0,0,0)" fill="url(#linearGradient3764)" fill-opacity="1"/></g><g/><g><g clip-path="url(#clipPath-964419273)"><g opacity="0.1"><!-- color: #709f39 --><g><path d="m 23 11 l -12 10 c -0.875 0.773 -1.215 1.441 -0.688 2 c 0.555 0.559 1.219 0.469 1.688 0 l 0 11 c 0 0.492 0.484 1 1 1 l 22 0 c 0.516 0 1 -0.508 1 -1 l 0 -11 c 0.469 0.469 1.129 0.559 1.688 0 c 0.527 -0.559 0.188 -1.227 -0.688 -2 l -12 -10 m -1.5 11 c 0.648 0 1.195 0.422 1.406 1 l 1.188 0 c 0.203 -0.586 0.75 -1 1.406 -1 c 0.648 0 1.195 0.422 1.406 1 l 1.188 0 c 0.203 -0.586 0.75 -1 1.406 -1 c 0.805 0 1.469 0.633 1.5 1.438 l 0 0.063 c 0 0.656 -0.414 1.203 -1 1.406 l 0 1.188 c 0.559 0.203 0.977 0.719 1 1.344 l 0 0.066 c 0 0.652 -0.414 1.199 -1 1.402 l 0 1.191 c 0.559 0.199 0.977 0.715 1 1.344 l 0 0.063 c 0 0.828 -0.672 1.5 -1.5 1.5 c -0.656 0 -1.203 -0.414 -1.406 -1 l -1.188 0 c -0.203 0.586 -0.75 1 -1.406 1 c -0.656 0 -1.203 -0.414 -1.406 -1 l -1.188 0 c -0.203 0.586 -0.75 1 -1.406 1 c -0.828 0 -1.5 -0.672 -1.5 -1.5 c 0 -0.656 0.414 -1.203 1 -1.406 l 0 -1.188 c -0.586 -0.207 -1 -0.75 -1 -1.406 c 0 -0.656 0.414 -1.203 1 -1.406 l 0 -1.188 c -0.586 -0.207 -1 -0.75 -1 -1.406 c 0 -0.828 0.672 -1.5 1.5 -1.5 m 1.406 1.996 c -0.148 0.434 -0.473 0.758 -0.906 0.906 l 0 1.188 c 0.418 0.148 0.754 0.484 0.906 0.906 l 1.188 0 c 0.148 -0.434 0.473 -0.758 0.906 -0.906 l 0 -1.188 c -0.434 -0.148 -0.758 -0.473 -0.906 -0.906 m 2.813 0 c -0.148 0.434 -0.473 0.758 -0.906 0.906 l 0 1.188 c 0.418 0.148 0.754 0.484 0.906 0.906 l 1.188 0 c 0.148 -0.434 0.473 -0.758 0.906 -0.906 l 0 -1.188 c -0.434 -0.148 -0.758 -0.473 -0.906 -0.906 m -5.188 4 c -0.148 0.434 -0.473 0.758 -0.906 0.906 l 0 1.188 c 0.418 0.148 0.754 0.484 0.906 0.906 l 1.188 0 c 0.148 -0.434 0.473 -0.758 0.906 -0.906 l 0 -1.188 c -0.434 -0.148 -0.758 -0.473 -0.906 -0.906 m 2.813 0 c -0.145 0.434 -0.473 0.758 -0.898 0.906 l 0 1.188 c 0.418 0.148 0.754 0.484 0.898 0.906 l 1.191 0 c 0.145 -0.434 0.473 -0.758 0.906 -0.906 l 0 -1.188 c -0.438 -0.148 -0.762 -0.473 -0.906 -0.906 m -1.191 0" stroke="none" fill-rule="nonzero" fill-opacity="1" fill="#000"/></g></g></g></g><g><g clip-path="url(#clipPath-980011171)"><g transform="translate(0,-1)"><!-- color: #709f39 --><g><path d="m 23 11 l -12 10 c -0.875 0.773 -1.215 1.441 -0.688 2 c 0.555 0.559 1.219 0.469 1.688 0 l 0 11 c 0 0.492 0.484 1 1 1 l 22 0 c 0.516 0 1 -0.508 1 -1 l 0 -11 c 0.469 0.469 1.129 0.559 1.688 0 c 0.527 -0.559 0.188 -1.227 -0.688 -2 l -12 -10 m -1.5 11 c 0.648 0 1.195 0.422 1.406 1 l 1.188 0 c 0.203 -0.586 0.75 -1 1.406 -1 c 0.648 0 1.195 0.422 1.406 1 l 1.188 0 c 0.203 -0.586 0.75 -1 1.406 -1 c 0.805 0 1.469 0.633 1.5 1.438 l 0 0.063 c 0 0.656 -0.414 1.203 -1 1.406 l 0 1.188 c 0.559 0.203 0.977 0.719 1 1.344 l 0 0.066 c 0 0.652 -0.414 1.199 -1 1.402 l 0 1.191 c 0.559 0.199 0.977 0.715 1 1.344 l 0 0.063 c 0 0.828 -0.672 1.5 -1.5 1.5 c -0.656 0 -1.203 -0.414 -1.406 -1 l -1.188 0 c -0.203 0.586 -0.75 1 -1.406 1 c -0.656 0 -1.203 -0.414 -1.406 -1 l -1.188 0 c -0.203 0.586 -0.75 1 -1.406 1 c -0.828 0 -1.5 -0.672 -1.5 -1.5 c 0 -0.656 0.414 -1.203 1 -1.406 l 0 -1.188 c -0.586 -0.207 -1 -0.75 -1 -1.406 c 0 -0.656 0.414 -1.203 1 -1.406 l 0 -1.188 c -0.586 -0.207 -1 -0.75 -1 -1.406 c 0 -0.828 0.672 -1.5 1.5 -1.5 m 1.406 1.996 c -0.148 0.434 -0.473 0.758 -0.906 0.906 l 0 1.188 c 0.418 0.148 0.754 0.484 0.906 0.906 l 1.188 0 c 0.148 -0.434 0.473 -0.758 0.906 -0.906 l 0 -1.188 c -0.434 -0.148 -0.758 -0.473 -0.906 -0.906 m 2.813 0 c -0.148 0.434 -0.473 0.758 -0.906 0.906 l 0 1.188 c 0.418 0.148 0.754 0.484 0.906 0.906 l 1.188 0 c 0.148 -0.434 0.473 -0.758 0.906 -0.906 l 0 -1.188 c -0.434 -0.148 -0.758 -0.473 -0.906 -0.906 m -5.188 4 c -0.148 0.434 -0.473 0.758 -0.906 0.906 l 0 1.188 c 0.418 0.148 0.754 0.484 0.906 0.906 l 1.188 0 c 0.148 -0.434 0.473 -0.758 0.906 -0.906 l 0 -1.188 c -0.434 -0.148 -0.758 -0.473 -0.906 -0.906 m 2.813 0 c -0.145 0.434 -0.473 0.758 -0.898 0.906 l 0 1.188 c 0.418 0.148 0.754 0.484 0.898 0.906 l 1.191 0 c 0.145 -0.434 0.473 -0.758 0.906 -0.906 l 0 -1.188 c -0.438 -0.148 -0.762 -0.473 -0.906 -0.906 m -1.191 0" fill="#f9f9f9" stroke="none" fill-rule="nonzero" fill-opacity="1"/></g></g></g></g><g><g transform="translate(0,-1004.3622)"><path d="m 1 1043.36 0 4 c 0 2.216 1.784 4 4 4 l 38 0 c 2.216 0 4 -1.784 4 -4 l 0 -4 c 0 2.216 -1.784 4 -4 4 l -38 0 c -2.216 0 -4 -1.784 -4 -4 z" opacity="0.1"/></g></g></svg>
